X: 1
T: Father John MacLeod's
M: 6/8
L: 1/8
R: jig
K: Dmaj
|:d3-def|fed cdB|B A2 FGA|
Adc B2 B|ABc def|g3-gef |
gba g2 f|efg fag|f2 e dcB|
[1AdA cAd|cec d2 A|AGE D3:|
[2AeA fAd|cec d2 A|AGE D3||
|:dAf AaA|eAd cAe|AaA dAc|
BcB F2 E|GFE B,3|B,CD E3|
EFG d3|dcd Ace|gfg a3|
d3 edc|d3-d2 A|AGE D3:|
